icons/cacheTypes/multi-inactive-untried.svg

<svg xmlns="http://www.w3.org/2000/svg" viewBox="0 0 32 32"><defs><style>.cls-2{fill:#fff}</style></defs><g id="Ebene_2" data-name="Ebene 2"><rect id="deaktiviert" width="32" height="32" rx="6" style="fill:#afadac"/><g id="Icons"><path d="M20.306 17.876v.918H3.449v-.918a2.763 2.763 0 0 1 2.757-2.755H17.55a2.763 2.763 0 0 1 2.756 2.755ZM18.808 20.129v5.344a2.763 2.763 0 0 1-2.756 2.755H7.7a2.763 2.763 0 0 1-2.757-2.755v-5.344Z" class="cls-2"/><path d="M13.192 13.122h4.358a4.76 4.76 0 0 1 4.756 4.754v.224H24.3a2.763 2.763 0 0 0 2.757-2.754v-5.341H13.192ZM25.794 5H14.45a2.763 2.763 0 0 0-2.756 2.755v.915h16.857v-.918A2.764 2.764 0 0 0 25.794 5Z" class="cls-2"/></g></g></svg>

<svg xmlns="http://www.w3.org/2000/svg" viewBox="0 0 32 32"><defs><style>.cls-1{fill:#afadac;}.cls-2{fill:#fff;}</style></defs><g id="Ebene_2" data-name="Ebene 2"><g id="deaktiviert"><rect class="cls-1" width="32" height="32" rx="6"/></g><g id="Icons"><path class="cls-2" d="M20.306,17.876v.918H3.449v-.918a2.763,2.763,0,0,1,2.757-2.755H17.55A2.763,2.763,0,0,1,20.306,17.876Z"/><path class="cls-2" d="M18.808,20.129v5.344a2.763,2.763,0,0,1-2.756,2.755H7.7a2.763,2.763,0,0,1-2.757-2.755V20.129Z"/><path class="cls-2" d="M13.192,13.122H17.55a4.76,4.76,0,0,1,4.756,4.754V18.1H24.3a2.763,2.763,0,0,0,2.757-2.754V10.005H13.192ZM25.794,5H14.45a2.763,2.763,0,0,0-2.756,2.755V8.67H28.551V7.752A2.764,2.764,0,0,0,25.794,5Z"/></g></g></svg>
